icon-themes/sifr_svg/cmd/lc_formfilternavigator.svg

<svg viewBox="0 0 24 24" xmlns="http://www.w3.org/2000/svg"><path d="m5 2v1l2 2 2-2v-1zm5 0v1l2 2 2-2v-1zm5 0v1l2 2 2-2v-1zm-9 4c-.552262 0-1 .44774-1 1v1h14v-1c0-.55226-.447738-1-1-1zm-1 3c.01563 1.01563 0 1 1 2l4 4h3.93c.47-.95 1.27-1.721335 2.228203-2.158203l1.841797-1.841797c1-1 1-1 1-2zm17.279297 3c-.07438 0-.150183.015332-.219297.04l-4.226016 1.405312c-1.797075.090641-3.293984 1.594688-3.388672 3.388672l-1.408203 4.226016c-.18397.555736.347216 1.086882.362891.902891l4.766016-1.410157c1.793984-.08801 3.298041-1.589436 3.388672-3.386718l1.408203-4.22461c.154245-.464593-.194132-.941406-.683594-.941406zm-4.279297 3a2 2 0 0 1 2 2 2 2 0 0 1 -2 2 2 2 0 0 1 -2-2 2 2 0 0 1 2-2zm-8 1v5c.000351.89064 1.077037 1.336591 1.707031.707031l.322266-.322265c-.018979-.209611-.012881-.424169.058594-.640625l1.390625-4.173829c.019067-.192635.041274-.385111.083984-.570312z" fill="#555753"/></svg>

<svg xmlns="http://www.w3.org/2000/svg" viewBox="0 0 24 24">
  <path
     style="fill:#555753"
     d="M 5 2 L 5 3 L 7 5 L 9 3 L 9 2 L 5 2 z M 10 2 L 10 3 L 12 5 L 14 3 L 14 2 L 10 2 z M 15 2 L 15 3 L 17 5 L 19 3 L 19 2 L 15 2 z M 6 6 C 5.447738 6 5 6.44774 5 7 L 5 8 L 19 8 L 19 7 C 19 6.44774 18.552262 6 18 6 L 6 6 z M 5 9 C 5.01563 10.01563 5 10 6 11 L 10 15 L 13.93 15 C 14.4 14.05 15.2 13.278665 16.158203 12.841797 L 18 11 C 19 10 19 10 19 9 L 5 9 z M 22.279297 12 C 22.204917 12 22.129114 12.015332 22.06 12.04 L 17.833984 13.445312 C 16.036909 13.535953 14.54 15.04 14.445312 16.833984 L 13.037109 21.06 C 12.853139 21.615736 13.384325 22.146882 13.4 21.962891 L 18.166016 20.552734 C 19.96 20.464724 21.464057 18.963298 21.554688 17.166016 L 22.962891 12.941406 C 23.117136 12.476813 22.768759 12 22.279297 12 z M 18 15 A 2 2 0 0 1 20 17 A 2 2 0 0 1 18 19 A 2 2 0 0 1 16 17 A 2 2 0 0 1 18 15 z M 10 16 L 10 21 C 10.000351 21.89064 11.077037 22.336591 11.707031 21.707031 L 12.029297 21.384766 C 12.010318 21.175155 12.016416 20.960597 12.087891 20.744141 L 13.478516 16.570312 C 13.497583 16.377677 13.51979 16.185201 13.5625 16 L 10 16 z "
     />
</svg>
